X: 15810
T: Goodnight Ginger
R: slip jig
M: 9/8
K: Amixolydian
c2 A ABA GAB|c2A ABA gag|f2d ded dBA|~G3 GFG ABd|
c2 A ABA GAB|c2A ABA gag|f2d ded dBA|~G3 GFG cde|
f2d dcd efa|f2 d ded BAG|~G3 GFG BAG|ABA Ace age|
f2d dcd efa|f2 d ded BAG|~G3 GFG BAG|~G3 GFG ABd:|

